public/cloud.svg

<svg xmlns="http://www.w3.org/2000/svg" width="1277" height="562" fill="none" viewBox="0 0 1277 562"><g opacity=".7"><path fill="url(#a)" d="M2.155 561.394a2.155 2.155 0 0 0 2.155-2.155v-72.141a29.3 29.3 0 0 1 29.263-29.263H533.78a33.607 33.607 0 0 0 33.573-33.569v-95.024h-4.31v95.021a29.295 29.295 0 0 1-29.262 29.26H33.573A33.61 33.61 0 0 0 0 487.1v72.141a2.157 2.157 0 0 0 2.155 2.153"/><path fill="url(#b)" d="M217.784 561.394a2.157 2.157 0 0 0 2.155-2.155v-72.141a29.3 29.3 0 0 1 29.263-29.263h238.633a33.614 33.614 0 0 0 33.575-33.569v-95.024h-4.31v95.021a29.3 29.3 0 0 1-29.265 29.26H249.202a33.61 33.61 0 0 0-33.573 33.577v72.141a2.155 2.155 0 0 0 2.155 2.153"/><path fill="url(#c)" d="M430.755 561.399a2.154 2.154 0 0 0 2.155-2.155v-46.287a29.3 29.3 0 0 1 29.263-29.263h97.482a54.62 54.62 0 0 0 54.56-54.56v-70.439h-4.306v70.439a50.297 50.297 0 0 1-50.25 50.25h-97.486a33.61 33.61 0 0 0-33.573 33.573v46.287a2.155 2.155 0 0 0 2.155 2.155"/><path fill="url(#d)" d="M1274.06 561.395c-.57 0-1.12-.227-1.52-.631a2.14 2.14 0 0 1-.64-1.524v-72.142a29.28 29.28 0 0 0-8.58-20.681 29.28 29.28 0 0 0-20.68-8.582H742.434a33.606 33.606 0 0 1-33.573-33.569v-95.024h4.31v95.021a29.295 29.295 0 0 0 29.262 29.26h500.207c8.9.01 17.44 3.55 23.73 9.844a33.62 33.62 0 0 1 9.84 23.729v72.146c0 .571-.22 1.119-.63 1.523-.4.403-.95.63-1.52.63"/><path fill="url(#e)" d="M1058.43 561.395c-.57 0-1.12-.227-1.52-.631a2.13 2.13 0 0 1-.63-1.524v-72.142a29.3 29.3 0 0 0-8.59-20.683 29.27 29.27 0 0 0-20.68-8.58H788.383a33.61 33.61 0 0 1-33.574-33.569v-95.024h4.31v95.021a29.297 29.297 0 0 0 29.264 29.26h238.627c8.91.01 17.44 3.551 23.73 9.845a33.6 33.6 0 0 1 9.85 23.728v72.146a2.17 2.17 0 0 1-.63 1.523c-.41.403-.96.63-1.53.63"/><path fill="url(#f)" d="M845.46 561.399a2.155 2.155 0 0 1-2.155-2.155v-46.287a29.3 29.3 0 0 0-29.263-29.263H716.56a54.62 54.62 0 0 1-54.56-54.56v-70.439h4.31v70.439a50.3 50.3 0 0 0 50.25 50.25h97.482a33.61 33.61 0 0 1 33.573 33.573v46.287a2.155 2.155 0 0 1-2.155 2.155"/><path fill="url(#g)" d="M941.776 211.87a126.8 126.8 0 0 0-49.505 10.008c.354-3.324.533-6.665.538-10.008a94.52 94.52 0 0 0-47.798-82.297 94.504 94.504 0 0 0-95.165 1.015A146.264 146.264 0 0 0 604.447 0c-78.655 0-142.624 62.133-145.95 139.967a169 169 0 0 0-143.677 8.881 168.986 168.986 0 0 0-48.966 255.838 168.98 168.98 0 0 0 130.243 61.308h545.679a127.06 127.06 0 0 0 89.844-37.216 127.06 127.06 0 0 0 37.22-89.846c0-33.699-13.39-66.018-37.22-89.846a127.06 127.06 0 0 0-89.844-37.216" opacity=".45"/></g><defs><linearGradient id="a" x1="283.677" x2="283.677" y1="329.242" y2="561.394" gradientUnits="userSpaceOnUse"><stop stop-color="#fff"/><stop offset=".543" stop-color="#deeaf6"/><stop offset="1" stop-color="#fff"/></linearGradient><linearGradient id="b" x1="368.519" x2="368.519" y1="329.242" y2="561.394" gradientUnits="userSpaceOnUse"><stop stop-color="#fff"/><stop offset=".543" stop-color="#deeaf6"/><stop offset="1" stop-color="#fff"/></linearGradient><linearGradient id="c" x1="521.407" x2="521.407" y1="358.695" y2="561.399" gradientUnits="userSpaceOnUse"><stop stop-color="#fff"/><stop offset=".543" stop-color="#deeaf6"/><stop offset="1" stop-color="#fff"/></linearGradient><linearGradient id="d" x1="992.538" x2="992.538" y1="329.242" y2="561.395" gradientUnits="userSpaceOnUse"><stop stop-color="#fff"/><stop offset=".543" stop-color="#deeaf6"/><stop offset="1" stop-color="#fff"/></linearGradient><linearGradient id="e" x1="907.698" x2="907.698" y1="329.242" y2="561.395" gradientUnits="userSpaceOnUse"><stop stop-color="#fff"/><stop offset=".543" stop-color="#deeaf6"/><stop offset="1" stop-color="#fff"/></linearGradient><linearGradient id="f" x1="754.807" x2="754.807" y1="358.695" y2="561.399" gradientUnits="userSpaceOnUse"><stop stop-color="#fff"/><stop offset=".543" stop-color="#deeaf6"/><stop offset="1" stop-color="#fff"/></linearGradient><linearGradient id="g" x1="647.972" x2="647.972" y1="0" y2="465.994" gradientUnits="userSpaceOnUse"><stop stop-color="#c5cff2"/><stop offset="1" stop-color="#fff" stop-opacity="0"/></linearGradient></defs></svg>

<svg width="1277" height="562" viewBox="0 0 1277 562" fill="none" xmlns="http://www.w3.org/2000/svg">
<g opacity="0.7">
<path d="M2.155 561.394C2.72654 561.394 3.27468 561.167 3.67882 560.763C4.08296 560.359 4.31 559.811 4.31 559.239V487.098C4.31979 479.34 7.40599 471.903 12.8917 466.417C18.3775 460.931 25.815 457.845 33.573 457.835H533.78C542.681 457.826 551.214 454.286 557.508 447.993C563.802 441.7 567.342 433.167 567.353 424.266V329.242H563.043V424.263C563.034 432.021 559.948 439.458 554.462 444.944C548.976 450.429 541.539 453.515 533.781 453.523H33.573C24.6712 453.533 16.1369 457.074 9.84271 463.369C3.54856 469.664 0.00873485 478.198 0 487.1V559.241C0.000530112 559.812 0.227806 560.36 0.631889 560.764C1.03597 561.167 1.5838 561.394 2.155 561.394Z" fill="url(#paint0_linear_9_98393)"/>
<path d="M217.784 561.394C218.355 561.394 218.904 561.167 219.308 560.763C219.712 560.359 219.939 559.811 219.939 559.239V487.098C219.949 479.34 223.035 471.903 228.521 466.417C234.006 460.931 241.444 457.845 249.202 457.835H487.835C496.735 457.825 505.269 454.285 511.563 447.992C517.857 441.699 521.398 433.167 521.41 424.266V329.242H517.1V424.263C517.089 432.021 514.002 439.458 508.516 444.943C503.03 450.428 495.593 453.514 487.835 453.523H249.202C240.3 453.533 231.766 457.074 225.472 463.369C219.178 469.664 215.638 478.198 215.629 487.1V559.241C215.629 559.812 215.857 560.36 216.261 560.764C216.665 561.167 217.213 561.394 217.784 561.394Z" fill="url(#paint1_linear_9_98393)"/>
<path d="M430.755 561.399C431.326 561.399 431.874 561.172 432.278 560.768C432.683 560.364 432.91 559.816 432.91 559.244V512.957C432.919 505.199 436.006 497.762 441.491 492.276C446.977 486.79 454.415 483.704 462.173 483.694H559.655C574.12 483.678 587.988 477.925 598.217 467.696C608.445 457.468 614.199 443.6 614.215 429.134V358.695H609.909V429.134C609.895 442.457 604.597 455.231 595.176 464.652C585.755 474.073 572.982 479.371 559.659 479.384H462.173C453.272 479.394 444.738 482.935 438.444 489.229C432.15 495.523 428.61 504.056 428.6 512.957V559.244C428.6 559.816 428.827 560.364 429.231 560.768C429.635 561.172 430.183 561.399 430.755 561.399Z" fill="url(#paint2_linear_9_98393)"/>
<path d="M1274.06 561.395C1273.49 561.395 1272.94 561.168 1272.54 560.764C1272.13 560.36 1271.9 559.812 1271.9 559.24V487.098C1271.89 479.34 1268.81 471.903 1263.32 466.417C1257.84 460.931 1250.4 457.845 1242.64 457.835H742.434C733.534 457.826 725.001 454.286 718.707 447.993C712.413 441.7 708.872 433.167 708.861 424.266V329.242H713.171V424.263C713.18 432.021 716.266 439.458 721.752 444.944C727.238 450.429 734.675 453.515 742.433 453.523H1242.64C1251.54 453.533 1260.08 457.073 1266.37 463.367C1272.66 469.661 1276.2 478.195 1276.21 487.096V559.242C1276.21 559.813 1275.99 560.361 1275.58 560.765C1275.18 561.168 1274.63 561.395 1274.06 561.395Z" fill="url(#paint3_linear_9_98393)"/>
<path d="M1058.43 561.395C1057.86 561.395 1057.31 561.168 1056.91 560.764C1056.5 560.36 1056.28 559.812 1056.28 559.24V487.098C1056.27 479.339 1053.18 471.901 1047.69 466.415C1042.21 460.929 1034.77 457.843 1027.01 457.835H788.383C779.482 457.825 770.949 454.285 764.655 447.992C758.361 441.699 754.82 433.167 754.809 424.266V329.242H759.119V424.263C759.129 432.021 762.216 439.458 767.702 444.943C773.188 450.428 780.625 453.514 788.383 453.523H1027.01C1035.92 453.533 1044.45 457.074 1050.74 463.368C1057.04 469.662 1060.58 478.195 1060.59 487.096V559.242C1060.59 559.813 1060.36 560.361 1059.96 560.765C1059.55 561.168 1059 561.395 1058.43 561.395Z" fill="url(#paint4_linear_9_98393)"/>
<path d="M845.46 561.399C844.888 561.399 844.34 561.172 843.936 560.768C843.532 560.364 843.305 559.816 843.305 559.244V512.957C843.295 505.199 840.209 497.762 834.723 492.276C829.238 486.79 821.8 483.704 814.042 483.694H716.56C702.095 483.678 688.226 477.925 677.998 467.696C667.769 457.468 662.016 443.6 662 429.134V358.695H666.31V429.134C666.323 442.457 671.622 455.231 681.042 464.652C690.463 474.073 703.237 479.371 716.56 479.384H814.042C822.943 479.394 831.477 482.934 837.771 489.228C844.065 495.522 847.605 504.056 847.615 512.957V559.244C847.615 559.816 847.388 560.364 846.984 560.768C846.58 561.172 846.032 561.399 845.46 561.399Z" fill="url(#paint5_linear_9_98393)"/>
<g opacity="0.45">
<path d="M941.776 211.87C924.77 211.852 907.934 215.256 892.271 221.878C892.625 218.554 892.804 215.213 892.809 211.87C892.833 195.151 888.422 178.724 880.025 164.266C871.628 149.808 859.546 137.837 845.011 129.573C830.477 121.309 814.01 117.049 797.292 117.228C780.573 117.406 764.201 122.016 749.846 130.588C745.98 94.7222 728.996 61.5502 702.158 37.4459C675.319 13.3417 640.52 0.00553095 604.447 0C525.792 0 461.823 62.133 458.497 139.967C435.371 130.778 410.502 126.809 385.665 128.344C360.829 129.879 336.638 136.881 314.82 148.848C293.003 160.816 274.098 177.454 259.456 197.575C244.814 217.695 234.796 240.801 230.118 265.242C225.44 289.682 226.218 314.854 232.396 338.959C238.573 363.064 249.998 385.508 265.854 404.686C281.71 423.864 301.606 439.304 324.121 449.902C346.635 460.5 371.212 465.995 396.097 465.994H941.776C975.474 465.994 1007.79 452.607 1031.62 428.778C1055.45 404.95 1068.84 372.631 1068.84 338.932C1068.84 305.233 1055.45 272.914 1031.62 249.086C1007.79 225.257 975.474 211.87 941.776 211.87Z" fill="url(#paint6_linear_9_98393)"/>
</g>
</g>
<defs>
<linearGradient id="paint0_linear_9_98393" x1="283.677" y1="329.242" x2="283.677" y2="561.394" gradientUnits="userSpaceOnUse">
<stop stop-color="white"/>
<stop offset="0.543" stop-color="#DEEAF6"/>
<stop offset="1" stop-color="white"/>
</linearGradient>
<linearGradient id="paint1_linear_9_98393" x1="368.519" y1="329.242" x2="368.519" y2="561.394" gradientUnits="userSpaceOnUse">
<stop stop-color="white"/>
<stop offset="0.543" stop-color="#DEEAF6"/>
<stop offset="1" stop-color="white"/>
</linearGradient>
<linearGradient id="paint2_linear_9_98393" x1="521.407" y1="358.695" x2="521.407" y2="561.399" gradientUnits="userSpaceOnUse">
<stop stop-color="white"/>
<stop offset="0.543" stop-color="#DEEAF6"/>
<stop offset="1" stop-color="white"/>
</linearGradient>
<linearGradient id="paint3_linear_9_98393" x1="992.538" y1="329.242" x2="992.538" y2="561.395" gradientUnits="userSpaceOnUse">
<stop stop-color="white"/>
<stop offset="0.543" stop-color="#DEEAF6"/>
<stop offset="1" stop-color="white"/>
</linearGradient>
<linearGradient id="paint4_linear_9_98393" x1="907.698" y1="329.242" x2="907.698" y2="561.395" gradientUnits="userSpaceOnUse">
<stop stop-color="white"/>
<stop offset="0.543" stop-color="#DEEAF6"/>
<stop offset="1" stop-color="white"/>
</linearGradient>
<linearGradient id="paint5_linear_9_98393" x1="754.807" y1="358.695" x2="754.807" y2="561.399" gradientUnits="userSpaceOnUse">
<stop stop-color="white"/>
<stop offset="0.543" stop-color="#DEEAF6"/>
<stop offset="1" stop-color="white"/>
</linearGradient>
<linearGradient id="paint6_linear_9_98393" x1="647.972" y1="0" x2="647.972" y2="465.994" gradientUnits="userSpaceOnUse">
<stop stop-color="#C5CFF2"/>
<stop offset="1" stop-color="white" stop-opacity="0"/>
</linearGradient>
</defs>
</svg>
